happyhackingkeyboard.svg

<?xml version="1.0" encoding="UTF-8" standalone="no"?>
<!DOCTYPE svg PUBLIC "-//W3C//DTD SVG 1.1//EN" "http://www.w3.org/Graphics/SVG/1.1/DTD/svg11.dtd">
<!-- Created with Vectornator (http://vectornator.io/) -->
<svg stroke-miterlimit="10" style="fill-rule:nonzero;clip-rule:evenodd;stroke-linecap:round;stroke-linejoin:round;" version="1.1" viewBox="0 0 24 24" xml:space="preserve" xmlns="http://www.w3.org/2000/svg" xmlns:xlink="http://www.w3.org/1999/xlink">
<defs/>
<clipPath id="ArtboardFrame">
<rect height="24" width="24" x="0" y="0"/>
</clipPath>
<g clip-path="url(#ArtboardFrame)" id="Untitled">
<g opacity="1">
<path d="M2.48179 8.46758C2.48303 8.2706 2.47555 8.07362 2.49052 7.87706C2.90068 7.87872 3.31127 7.87872 3.72144 7.87706C3.7177 9.42423 3.72767 10.9718 3.71603 12.519C3.30046 12.5502 2.87575 12.5269 2.48054 12.3852C2.48303 11.0794 2.48096 9.77331 2.48179 8.46758Z" fill="#000000" fill-rule="nonzero" opacity="1" stroke="none"/>
<path d="M5.77435 7.87706C6.18494 7.87872 6.59552 7.87872 7.00569 7.87706C7.02855 9.01614 7.00237 10.1565 7.01899 11.2955C7.02605 11.5702 7.02605 11.8449 7.01816 12.1196C7.00901 13.4432 7.01691 14.7672 7.014 16.0908C6.60051 16.0921 6.18702 16.0879 5.77352 16.0929C5.77352 14.9671 5.77851 13.8413 5.77145 12.716C5.76272 12.4371 5.76272 12.1579 5.77228 11.879C5.77809 10.545 5.77311 9.21104 5.77435 7.87706Z" fill="#000000" fill-rule="nonzero" opacity="1" stroke="none"/>
<path d="M8.9996 7.87789C9.41517 7.87747 9.83032 7.87914 10.2459 7.87706C10.2446 8.90851 10.2471 9.94037 10.2446 10.9718L10.2147 10.9623C9.82368 10.8417 9.40686 10.8014 8.99918 10.8305C9.00043 9.84645 8.9996 8.86238 8.9996 7.87789Z" fill="#000000" fill-rule="nonzero" opacity="1" stroke="none"/>
<path d="M13.0202 7.87789C13.3839 7.87789 13.7475 7.87914 14.1115 7.87706C14.1323 8.94632 14.1144 10.0164 14.1207 11.0857C14.1203 12.7542 14.1207 14.4223 14.1203 16.0908C13.7533 16.0912 13.3864 16.09 13.0194 16.0916C13.0211 13.3534 13.0198 10.6157 13.0202 7.87789Z" fill="#000000" fill-rule="nonzero" opacity="1" stroke="none"/>
<path d="M14.3812 12.0806C15.3807 10.6847 16.3643 9.27712 17.3675 7.88371C17.813 7.86958 18.2598 7.88329 18.7057 7.87747C18.6903 7.89908 18.66 7.9423 18.6446 7.96391C17.678 9.33239 16.7047 10.6959 15.7381 12.0643C16.7246 13.41 17.717 14.7518 18.7107 16.0925C18.2627 16.0892 17.8147 16.0908 17.3667 16.0916C16.3714 14.7548 15.3761 13.4174 14.3812 12.0806Z" fill="#000000" fill-rule="nonzero" opacity="1" stroke="none"/>
<path d="M-3.55271e-15 9.29083C0.25516 9.29166 0.510321 9.29332 0.765481 9.28958C0.824492 9.95533 0.947917 10.6281 1.25752 11.2278C1.51559 11.7348 1.92451 12.2065 2.48054 12.3852C2.87575 12.5269 3.30046 12.5502 3.71603 12.519C4.43829 12.4579 5.12066 12.1811 5.77228 11.879C5.76272 12.1579 5.76272 12.4371 5.77145 12.716C5.11734 13.0023 4.42832 13.2134 3.71811 13.2965C3.30628 13.3435 2.8799 13.3227 2.48179 13.2026C2.09946 13.0792 1.72462 12.9117 1.41668 12.6482C0.745949 12.1063 0.37152 11.2868 0.167475 10.4665C0.0739716 10.0808 0.0224409 9.68645-3.55271e-15 9.29083Z" fill="#ed1c24" fill-rule="nonzero" opacity="1" stroke="none"/>
<path d="M7.01899 11.2955C7.65481 11.0533 8.31848 10.8771 8.99918 10.8305C9.40686 10.8014 9.82368 10.8417 10.2147 10.9623C10.5621 11.0919 10.9112 11.2345 11.2063 11.4647C12.0428 12.0822 12.5199 13.0717 12.7447 14.0653C12.8104 14.3529 12.849 14.6467 12.8669 14.9409C12.6068 14.9355 12.3462 14.9389 12.0856 14.9384C12.0603 14.3354 11.8953 13.7416 11.6389 13.1972C11.3438 12.5984 10.8825 12.0369 10.2417 11.798C9.84695 11.6463 9.42182 11.5918 9.00043 11.606C8.31183 11.6305 7.64775 11.8528 7.01816 12.1196C7.02605 11.8449 7.02605 11.5702 7.01899 11.2955Z" fill="#ed1c24" fill-rule="nonzero" opacity="1" stroke="none"/>
<path d="M9.00043 11.606C9.42182 11.5918 9.84695 11.6463 10.2417 11.798C10.2513 13.2296 10.2417 14.6612 10.2467 16.0929C9.83074 16.0879 9.41517 16.0921 8.9996 16.0908C9.00084 14.596 8.99835 13.1012 9.00043 11.606Z" fill="#000000" fill-rule="nonzero" opacity="1" stroke="none"/>
<path d="M19.3487 7.83644C19.2215 7.83311 19.0864 7.8834 19.015 7.99228C18.9277 8.15186 18.9487 8.3385 18.9474 8.51304C18.9478 10.839 18.9478 13.1648 18.9474 15.4907C18.9491 15.654 18.9304 15.824 19.0007 15.9777C19.0692 16.0991 19.2103 16.1672 19.3474 16.1634C20.0298 16.1643 20.7117 16.1634 21.3941 16.1634C21.9048 16.1593 22.4228 16.0635 22.8746 15.8167C23.3633 15.5586 23.7313 15.0969 23.8888 14.5687C24.0546 13.9894 24.0421 13.352 23.8031 12.7947C23.7757 12.7386 23.7483 12.6825 23.72 12.6272C23.5238 12.2777 23.2193 11.9838 22.8486 11.8259C22.7418 11.7785 22.6262 11.7547 22.5239 11.6973C22.7803 11.5552 23.0164 11.3698 23.1798 11.1233C23.2799 10.965 23.3591 10.7956 23.4148 10.6169C23.5715 10.0538 23.541 9.43057 23.2979 8.89614C23.1064 8.47434 22.7255 8.16702 22.2967 8.00786C22.2539 7.99415 22.2118 7.98002 22.1694 7.9663C21.8365 7.86947 21.4883 7.83311 21.1422 7.83644C20.5446 7.83727 19.9463 7.83561 19.3487 7.83644ZM21.1019 8.72342C21.4194 8.72716 21.752 8.77615 22.0188 8.96107C22.1713 9.05873 22.2708 9.21473 22.3564 9.37015C22.5031 9.76453 22.5091 10.206 22.3915 10.6091C22.3769 10.6465 22.3632 10.6842 22.3499 10.7221C22.2926 10.8368 22.2282 10.949 22.1434 11.0454C22.1143 11.0737 22.086 11.102 22.0577 11.1311C21.9601 11.2159 21.8474 11.2805 21.7356 11.3441C21.5324 11.4143 21.3185 11.4407 21.1045 11.4428C20.7213 11.4432 20.337 11.4424 19.9539 11.4428C19.9547 10.5373 19.9523 9.63066 19.9552 8.72472C20.3371 8.72306 20.72 8.72425 21.1019 8.72342ZM19.9539 12.3077C20.3919 12.3077 20.8301 12.3081 21.2681 12.3077C21.7282 12.3098 22.2203 12.4095 22.559 12.7441C22.6363 12.8355 22.705 12.9327 22.7694 13.0337C22.9718 13.463 22.9937 13.9706 22.8499 14.4206C22.7535 14.6504 22.5967 14.8486 22.3993 14.9998C22.3415 15.0318 22.2857 15.0662 22.2291 15.0998C21.9711 15.2303 21.6779 15.2615 21.3928 15.2661C20.9132 15.2652 20.4335 15.2661 19.9539 15.2661C19.9539 14.2803 19.9539 13.2935 19.9539 12.3077Z" fill="#000000" fill-rule="nonzero" opacity="1" stroke="none"/>
<path d="M2.48179 13.2026C2.8799 13.3227 3.30628 13.3435 3.71811 13.2965C3.72559 14.2286 3.7177 15.1608 3.72185 16.0929C3.30877 16.0879 2.89528 16.0921 2.48179 16.0908C2.48179 15.1279 2.48096 14.1655 2.48179 13.2026Z" fill="#000000" fill-rule="nonzero" opacity="1" stroke="none"/>
</g>
</g>
</svg>

<svg stroke-miterlimit="10" style="fill-rule:nonzero;clip-rule:evenodd;stroke-linecap:round;stroke-linejoin:round" viewBox="0 0 24 24" xml:space="preserve" xmlns="http://www.w3.org/2000/svg"><clipPath id="a"><path d="M0 0h24v24H0z"/></clipPath><g clip-path="url(#a)"><path d="M2.482 8.468c.001-.197-.006-.394.009-.59h1.23c-.003 1.546.007 3.094-.005 4.641-.416.031-.84.008-1.235-.134.002-1.306 0-2.612 0-3.917ZM5.774 7.877c.41.002.822.002 1.232 0 .023 1.14-.004 2.28.013 3.419.007.274.007.549 0 .824-.01 1.323-.002 2.647-.005 3.97-.413.002-.827-.002-1.24.003 0-1.126.005-2.252-.003-3.377a12.771 12.771 0 0 1 .001-.837c.006-1.334.001-2.668.002-4.002ZM9 7.878h1.246c-.001 1.03.001 2.062-.001 3.094l-.03-.01a3.336 3.336 0 0 0-1.216-.131V7.878ZM13.02 7.878h1.091c.021 1.068.003 2.138.01 3.208v5.005h-1.102c.002-2.738 0-5.475.001-8.213ZM14.381 12.08c1-1.395 1.983-2.803 2.986-4.196.446-.014.893 0 1.339-.007l-.061.087c-.967 1.368-1.94 2.732-2.907 4.1a953.441 953.441 0 0 0 2.973 4.029c-.448-.004-.896-.002-1.344-.001-.996-1.337-1.99-2.675-2.986-4.011Z"/><path d="M0 9.29c.255.002.51.003.765 0 .06.665.183 1.338.493 1.938.258.507.667.979 1.223 1.157.395.142.82.165 1.235.134.722-.061 1.405-.338 2.056-.64-.01.279-.01.558 0 .837a7.24 7.24 0 0 1-2.054.58 3.088 3.088 0 0 1-1.236-.093c-.383-.124-.757-.291-1.065-.555-.671-.542-1.045-1.361-1.25-2.181A6.565 6.565 0 0 1 0 9.29ZM7.019 11.296c.636-.243 1.3-.419 1.98-.465.408-.03.825.01 1.216.131.347.13.696.273.991.503.837.617 1.314 1.607 1.539 2.6.065.288.104.582.122.876-.26-.006-.52-.002-.781-.003a4.563 4.563 0 0 0-.447-1.74c-.295-.6-.756-1.161-1.397-1.4A3.161 3.161 0 0 0 9 11.606c-.688.024-1.352.247-1.982.514.008-.275.008-.55.001-.824Z" fill="#ed1c24"/><path d="M9 11.606c.422-.014.847.04 1.242.192.01 1.432 0 2.863.005 4.295-.416-.005-.832 0-1.247-.002 0-1.495-.002-2.99 0-4.485ZM19.349 7.836c-.128-.003-.263.047-.334.156-.087.16-.066.346-.068.521v6.978c.002.163-.017.333.054.487.068.121.21.19.346.185h2.047c.51-.004 1.029-.1 1.48-.346.49-.258.857-.72 1.015-1.248.166-.58.153-1.217-.086-1.774l-.083-.168c-.196-.35-.5-.643-.871-.801-.107-.048-.223-.071-.325-.129.256-.142.492-.327.656-.574.1-.158.18-.327.235-.506a2.549 2.549 0 0 0-.117-1.72c-.192-.423-.572-.73-1.001-.89l-.128-.04a3.556 3.556 0 0 0-1.027-.13H19.35Zm1.753.887c.317.004.65.053.917.238.152.098.252.254.337.41.147.394.153.835.035 1.238a3.47 3.47 0 0 0-.041.113 1.492 1.492 0 0 1-.207.323l-.085.086c-.098.085-.21.15-.322.213-.204.07-.418.097-.631.099h-1.151c0-.906-.002-1.812.001-2.718.382-.002.765 0 1.147-.002Zm-1.148 3.585h1.314c.46.002.952.101 1.291.436.077.091.146.189.21.29.203.429.225.937.08 1.387-.096.23-.252.428-.45.579-.058.032-.113.066-.17.1-.258.13-.551.162-.836.166h-1.44v-2.958ZM2.482 13.203c.398.12.824.14 1.236.094.008.932 0 1.864.004 2.796-.413-.005-.827 0-1.24-.002v-2.888Z"/></g></svg>
